!!!!SEGMENT: pl-wtm--r-1143-1--001-008_dobrzynski-ignacy-feliks--studium-na-temat-oryginalny-op-62-grandioso.krn
!!!cenid: 18xx:1755
!!!COM: Dobrzyński, Ignacy Feliks
!!!COM-rismID: pe30020642
!!!CDT: 1807/02/15-1867/10/09
!!!CNT: Polish
!!!OPR: Studium na temat oryginalny op. 62
!!!OTL: Grandioso
!!!OMV: 008
!!!PDT: 1867
!!!AGN: Secular; Variations
!!!YEC: Copyright 2022 Narodowy Instytut Fryderyka Chopina (https://polishscores.org)
!!!YEM: License CC-BY-4.0 (https://creativecommons.org/licenses/by/4.0)
!!!SMS-siglum: PL-Wtm
!!!SMS-shelfmark: R 1143/1
!!!SMS-shelfwork: 001-008 M
!!!SMS-variant:
!!!SMS-altvar:
!!!NIFC-rismSourceID: 1001057385
!!!NIFC-rismChildID: 1001057385
!!!NIFC-islandoraID:
!!!URL-pdf-islandora:
!!!URL-scan:
!!!IIIF:
!!!ONB-nifc: UWAGA: numeracja części zgodna z numerami w źródle. Na podstawie partytury (folder r1143-1)
!!!AIN: 1 cello 1 viola 2 violn
!!!key:
**kern	**dynam	**kern	**dynam	**kern	**dynam	**kern	**dynam
*part4	*	*part3	*	*part2	*	*part1	*
*staff4	*	*staff3	*	*staff2	*	*staff1	*
*Icello	*	*Iviola	*	*Ivioln	*	*Ivioln	*
*I"Violoncello	*	*I"Viola	*	*I"Violino Secondo	*	*I"Violino Primo.	*
*	*	*	*	*mI"VIolino II	*	*mI"Violino I	*
*I'vlc	*	*I'va	*	*I'vn 2	*	*I'vn 1	*
*	*	*	*	*mI'vn II	*	*mI'vn I	*
*clefF4	*	*clefC3	*	*clefG2	*	*clefG2	*
*k[f#c#g#]	*	*k[f#c#g#]	*	*k[f#c#g#]	*	*k[f#c#g#]	*
*A:	*	*A:	*	*A:	*	*A:	*
*M4/4	*	*M4/4	*	*M4/4	*	*M4/4	*
*met(c)	*	*met(c)	*	*met(c)	*	*met(c)	*
*>[A,A1,A2,B]	*	*>[A,A1,A2,B]	*	*>[A,A1,A2,B]	*	*>[A,A1,A2,B]	*
=1	=1	=1	=1	=1	=1	=1	=1
*Xtuplet	*	*	*	*	*	*	*
*tremolo	*	*	*	*	*	*	*
!!!OMD:
!!!OMD-mod: Grandioso
!	!LO:MO:null:mod=!LO&colon;DY&colon;ed=brack	!	!	!	!LO:MO:null:mod=!LO&colon;DY&colon;ed=brack	!LO:TX:a:i:t=Grandioso:mod=	!
!	!	!	!	!	!	!	!
!	!LO:MO:null:mod=ff	!	!	!	!LO:MO:null:mod=ff	!LO:TX:a:i:t=No 8.	!
12AA/L	.	2.A/	ff	2c#/	.	2e/	ff
12AA/	.	.	.	.	.	.	.
12AA/J	.	.	.	.	.	.	.
*rep	*	*	*	*	*	*	*
12AA/L	.	.	.	.	.	.	.
12AA/	.	.	.	.	.	.	.
12AA/J	.	.	.	.	.	.	.
*Xrep	*	*	*	*	*	*	*
*rep	*	*	*	*	*	*	*
12AA/L	.	.	.	4d^>/	.	4f#^>/	.
12AA/	.	.	.	.	.	.	.
12AA/J	.	.	.	.	.	.	.
*Xrep	*	*	*	*	*	*	*
*rep	*	*	*	*	*	*	*
12AA/L	.	4B^\ 4d	.	4e^>/	.	4g#^>/	.
12AA/	.	.	.	.	.	.	.
12AA/J	.	.	.	.	.	.	.
*Xrep	*	*	*	*	*	*	*
=2	=2	=2	=2	=2	=2	=2	=2
*rep	*	*	*	*	*	*	*
12AA/L	.	4c#^\	.	4e^>/	.	4a^\	.
12AA/	.	.	.	.	.	.	.
12AA/J	.	.	.	.	.	.	.
12AA/L	.	2e\	.	4g#^>/	.	4b^\	.
12AA/	.	.	.	.	.	.	.
12AA/J	.	.	.	.	.	.	.
12AA/L	.	.	.	[2a^>/	.	2cc#^\	.
12AA/	.	.	.	.	.	.	.
12AA/J	.	.	.	.	.	.	.
12AA/L	.	(4gn\	.	.	.	.	.
12AA/	.	.	.	.	.	.	.
12AA/J	.	.	.	.	.	.	.
*Xrep	*	*	*	*	*	*	*
=3	=3	=3	=3	=3	=3	=3	=3
*rep	*	*	*	*	*	*	*
12AA/L	.	4f#\	.	2.a/]	.	2dd^\	.
12AA/	.	.	.	.	.	.	.
12AA/J	.	.	.	.	.	.	.
12AA/L	.	4fn\	.	.	.	.	.
12AA/	.	.	.	.	.	.	.
12AA/J	.	.	.	.	.	.	.
12AA/L	.	4e\)	.	.	.	4cc#^\	.
12AA/	.	.	.	.	.	.	.
12AA/J	.	.	.	.	.	.	.
12AA/L	.	4c#\	.	4e/	.	4a^\	.
12AA/	.	.	.	.	.	.	.
12AA/J	.	.	.	.	.	.	.
*Xrep	*	*	*	*	*	*	*
=4	=4	=4	=4	=4	=4	=4	=4
12FF#/L	>	(4A/	>	(4d#X/	>	(2b\	>
12FF#/	.	.	.	.	.	.	.
12FF#/J	.	.	.	.	.	.	.
12EE/L	.	4G#/	.	4dn/	.	.	.
12EE/	.	.	.	.	.	.	.
12EE/J	.	.	.	.	.	.	.
12AA/L	.	4A/)	]	4c#/)	]	4a\)	]
12AA/	.	.	.	.	.	.	.
12AA/J	.	.	.	.	.	.	.
*Xtremolo	*	*	*	*	*	*	*
12AA/L	]	4r	.	4r	.	4r	.
12AA/	.	.	.	.	.	.	.
12GG#/J	.	.	.	.	.	.	.
=5!|:	=5!|:	=5!|:	=5!|:	=5!|:	=5!|:	=5!|:	=5!|:
*tremolo	*	*	*	*	*	*	*
*>A	*	*>A	*	*>A	*	*>A	*
!	!LO:MO:null:mod=!LO&colon;DY&colon;ed=brack	!	!	!	!LO:MO:null:mod=!LO&colon;DY&colon;ed=brack	!	!
!	!	!	!	!	!	!	!
!	!LO:MO:null:mod=ff	!	!	!	!LO:MO:null:mod=ff	!LO:TX:a:i:t=simile	!
12FF#/L	.	2c#/	ff	2f#/	.	2a/	ff
12FF#/	.	.	.	.	.	.	.
12FF#/J	.	.	.	.	.	.	.
*rep	*	*	*	*	*	*	*
12FF#/L	.	.	.	.	.	.	.
12FF#/	.	.	.	.	.	.	.
12FF#/J	.	.	.	.	.	.	.
*Xrep	*	*	*	*	*	*	*
*rep	*	*	*	*	*	*	*
12FF#/L	.	4B/	.	4e#X/	.	4g#/	.
12FF#/	.	.	.	.	.	.	.
12FF#/J	.	.	.	.	.	.	.
*Xrep	*	*	*	*	*	*	*
*rep	*	*	*	*	*	*	*
12FF#/L	.	4A/	.	4c#/	.	4f#/	.
12FF#/	.	.	.	.	.	.	.
12FF#/J	.	.	.	.	.	.	.
*Xrep	*	*	*	*	*	*	*
=6	=6	=6	=6	=6	=6	=6	=6
12C#/L	.	4G#/	.	4c#/	.	4e#X/	.
12C#/	.	.	.	.	.	.	.
12C#/	.	.	.	.	.	.	.
12C#/	.	4A/	.	4c#/	.	4f#/	.
12C#/	.	.	.	.	.	.	.
12C#/J	.	.	.	.	.	.	.
*Xtremolo	*	*	*	*	*	*	*
12C#/L	.	2c#/	.	2e#X/	.	2g#/	.
12D/	.	.	.	.	.	.	.
12C#/J	.	.	.	.	.	.	.
12BB/L	.	.	.	.	.	.	.
12C#/	.	.	.	.	.	.	.
12BB/J	.	.	.	.	.	.	.
!!LO:LB:g=original
=7	=7	=7	=7	=7	=7	=7	=7
12AA/L	.	4c#/	<	4f#/	<	4a\	<
12GG#/	.	.	.	.	.	.	.
12FF#/J	.	.	.	.	.	.	.
12F#\L	.	4A/	.	4f#/	.	4cc#\	.
12A\	.	.	.	.	.	.	.
12F#\J	.	.	.	.	.	.	.
12BB/L	.	2B/	[ fz	2a/	[ fz	2dd#Xtt\	[ fz
12C#/	.	.	.	.	.	.	.
12BB/J	.	.	.	.	.	.	.
12AA/L	.	.	.	.	.	.	.
12GG#/	.	.	.	.	.	.	.
12FF#/J	.	.	.	.	.	.	.
.	.	.	.	.	.	(16qqcc#/LL	.
.	.	.	.	.	.	16qqdd#/JJ)	.
=8	=8	=8	=8	=8	=8	=8	=8
!LO:TX:a:i:t=risoluto	!	!	!	!	!	!	!
!LO:TX:a:t=P:mixedbeam:problem	!	!	!	!	!	!	!
12EE/L	.	2.B/	.	2.g#/	.	(2ee\	.
12E\	.	.	.	.	.	.	.
12D#X\J	.	.	.	.	.	.	.
12Dn/L	.	.	.	.	.	.	.
12C#/	.	.	.	.	.	.	.
12BB/J	.	.	.	.	.	.	.
12AA/L	.	.	.	.	.	4e/)	.
12GG#/	.	.	.	.	.	.	.
12FF#/J	.	.	.	.	.	.	.
12EE/L	.	4r	.	4r	.	4r	.
12FF#/	.	.	.	.	.	.	.
12GG#/J	.	.	.	.	.	.	.
=9	=9	=9	=9	=9	=9	=9	=9
*tremolo	*	*tremolo	*	*tremolo	*	*tremolo	*
!	!	!LO:TX:a:t=3.:mod=	!	!LO:TX:a:t=3.:mod=	!	!LO:TX:a:t=3.:mod=	!
12AA/L	ff	12A/L	.	12c#/L	.	12e/L	ff
12AA/	.	12A/	.	12c#/	.	12e/	.
12AA/J	.	12A/J	.	12c#/J	.	12e/J	.
*rep	*	*rep	*	*rep	*	*	*
12AA/L	.	12A/L	.	12c#/L	.	12e/L	.
12AA/	.	12A/	.	12c#/	.	12e/	.
12AA/J	.	12A/J	.	12c#/J	.	12e/J	.
*Xrep	*	*Xrep	*	*Xrep	*	*	*
*	*	*rep	*	*	*	*	*
12D/L	.	12A/L	.	12d/L	.	12f#/L	.
12D/	.	12A/	.	12d/	.	12f#/	.
12D/J	.	12A/J	.	12d/J	.	12f#/J	.
*	*	*Xrep	*	*	*	*	*
12BB/L	.	12d\L	.	12e/L	.	12g#/L	.
12BB/	.	12d\	.	12e/	.	12g#/	.
12BB/J	.	12d\J	.	12e/J	.	12g#/J	.
=10	=10	=10	=10	=10	=10	=10	=10
!	!LO:MO:null:mod=<	!	!	!	!LO:MO:null:mod=<	!	!
12AA/L	.	12c#\L	<	12e/L	.	12a/L	<
12AA/	.	12c#\	.	12e/	.	12a/	.
12AA/J	.	12c#\J	.	12e/	.	12a/J	.
12GG#/L	.	12e\L	.	12e/	.	12b\L	.
12GG#/	.	12e\	.	12e/	.	12b\	.
12GG#/J	.	12e\J	.	12e/J	.	12b\J	.
!	!LO:MO:null:mod=[	!	!	!	!LO:MO:null:mod=[	!	!
12GGn/L	.	12e\L	[	12a/L	.	12cc#\L	[
12GG/	.	12e\	.	12a/	.	12cc#\	.
12GG/	.	12e\	.	12a/	.	12cc#\	.
12GG/	.	12e\	.	12a/	.	12cc#\	.
12GG/	.	12e\	.	12a/	.	12cc#\	.
12GG/J	.	12e\J	.	12a/J	.	12cc#\J	.
=11	=11	=11	=11	=11	=11	=11	=11
12FF#/L	.	12d\L	.	12a/L	.	12dd\L	.
12FF#/	.	12d\	.	12a/	.	12dd\	.
12FF#/J	.	12d\	.	12a/	.	12dd\	.
12FFn/L	.	12d\	.	12a/	.	12dd\	.
12FF/	.	12d\	.	12a/	.	12dd\	.
12FF/J	.	12d\J	.	12a/J	.	12dd\J	.
*Xtremolo	*	*	*	*	*	*	*
!LO:TX:a:t=P:problem=mixedbeam	!	!	!	!	!	!	!
12EE/L	.	12e\L	.	12a/L	.	12cc#\L	.
12E\	.	12e\	.	12a/	.	12cc#\	.
12E\J	.	12e\J	.	12a/J	.	12cc#\J	.
*tremolo	*	*	*	*	*	*	*
12F#\L	.	12c#/L	.	12f#/L	.	12a\L	.
12F#\	.	12c#/	.	12f#/	.	12a\	.
12F#\J	.	12c#/J	.	12f#/J	.	12a\J	.
=12	=12	=12	=12	=12	=12	=12	=12
*>A1	*	*>A1	*	*>A1	*	*>A1	*
!	!	!	!	!	!	!LO:TX:a:t=1a	!
12BB/L	.	12d\L	.	12f#/L	.	12b\L	.
12BB/	.	12d\	.	12f#/	.	12b\	.
12BB/J	.	12d\	.	12f#/J	.	12b\	.
12E\L	.	12d\	.	12g#/L	.	12b\	.
12E\	.	12d\	.	12g#/	.	12b\	.
12E\J	.	12d\J	.	12g#/J	.	12b\J	.
*	*	*Xtremolo	*	*Xtremolo	*	*Xtremolo	*
12AA/L	.	4c#\	.	4a/	.	4a\	.
12AA/	.	.	.	.	.	.	.
12AA/J	.	.	.	.	.	.	.
*Xtremolo	*	*	*	*	*	*	*
12AA/L	.	4r	.	4r	.	4r	.
12AA/	.	.	.	.	.	.	.
12GG#/J	.	.	.	.	.	.	.
!!LO:PB:g=original
=13:|!	=13:|!	=13:|!	=13:|!	=13:|!	=13:|!	=13:|!	=13:|!
*>A2	*	*>A2	*	*>A2	*	*>A2	*
*tremolo	*	*tremolo	*	*tremolo	*	*tremolo	*
!	!	!	!	!	!	!LO:TX:a:t=2a	!
12BB/L	.	12d\L	.	12f#/L	.	12b\L	.
12BB/	.	12d\	.	12f#/	.	12b\	.
12BB/J	.	12d\	.	12f#/J	.	12b\	.
12E\L	.	12d\	.	12g#/L	.	12b\	.
12E\	.	12d\	.	12g#/	.	12b\	.
12E\J	.	12d\J	.	12g#/J	.	12b\J	.
*	*	*Xtremolo	*	*Xtremolo	*	*Xtremolo	*
12AA/L	>	4c#\	.	4a/	.	4a\	.
12AA/	.	.	.	.	.	.	.
12AA/J	.	.	.	.	.	.	.
12AA/L	.	4r	.	4r	.	4r	.
12AA/	.	.	.	.	.	.	.
12AA/J	]]	.	.	.	.	.	.
=14	=14	=14	=14	=14	=14	=14	=14
*>B	*	*>B	*	*>B	*	*>B	*
12A\L	p	(>2a\	p	(>2a\	p	1r	.
12A\	.	.	.	.	.	.	.
12A\	.	.	.	.	.	.	.
12A\	.	.	.	.	.	.	.
12A\	.	.	.	.	.	.	.
12A\J	.	.	.	.	.	.	.
*rep	*	*	*	*	*	*	*
12A\L	.	4g#X\	.	4b\	.	.	.
12A\	.	.	.	.	.	.	.
12A\	.	.	.	.	.	.	.
12A\	.	4gn\)	.	4cc#\	.	.	.
12A\	.	.	.	.	.	.	.
12A\J	.	.	.	.	.	.	.
*Xrep	*	*	*	*	*	*	*
=15	=15	=15	=15	=15	=15	=15	=15
*rep	*	*	*	*	*	*	*
12A\L	.	(>2f#\	.	4dd\)	.	(>2dd\	p
12A\	.	.	.	.	.	.	.
12A\	.	.	.	.	.	.	.
12A\	.	.	.	4r	.	.	.
12A\	.	.	.	.	.	.	.
12A\J	.	.	.	.	.	.	.
12A\L	.	4c#\	.	2r	.	4ee\	.
12A\	.	.	.	.	.	.	.
12A\	.	.	.	.	.	.	.
12A\	.	4d\)	.	.	.	4ff#\)	.
12A\	.	.	.	.	.	.	.
12A\J	.	.	.	.	.	.	.
*Xrep	*	*	*	*	*	*	*
=16	=16	=16	=16	=16	=16	=16	=16
*rep	*	*	*	*	*	*	*
12A\L	>	(>2b\	>	(>1d	>	(>1g#	>
12A\	.	.	.	.	.	.	.
12A\	.	.	.	.	.	.	.
12A\	.	.	.	.	.	.	.
12A\	.	.	.	.	.	.	.
12A\J	.	.	.	.	.	.	.
12A\L	]	4cc#\	]	.	]	.	]
12A\	.	.	.	.	.	.	.
12A\	.	.	.	.	.	.	.
12A\	.	4b\	.	.	.	.	.
12A\	.	.	.	.	.	.	.
12A\J	.	.	.	.	.	.	.
*Xrep	*	*	*	*	*	*	*
*Xtremolo	*	*	*	*	*	*	*
=17	=17	=17	=17	=17	=17	=17	=17
12A'\L	p	4a\)	p	4c#/)	p	4a/)	p
12c#'\	.	.	.	.	.	.	.
12B'\J	.	.	.	.	.	.	.
12A'\L	.	4r	.	4r	.	4r	.
12G#'\	.	.	.	.	.	.	.
12F#'\J	.	.	.	.	.	.	.
12E'\L	.	2r	.	2r	.	2r	.
12D#'\	.	.	.	.	.	.	.
12F#'\J	.	.	.	.	.	.	.
12E'\L	.	.	.	.	.	.	.
12C#'\	.	.	.	.	.	.	.
12AA'\J	.	.	.	.	.	.	.
=18	=18	=18	=18	=18	=18	=18	=18
*tremolo	*	*	*	*	*	*	*
!	!	!	!	!	!	!LO:N:vis=2	!
12AA/L	.	(>2A/	.	(>2A/	.	1rb	.
12AA/	.	.	.	.	.	.	.
12AA/	.	.	.	.	.	.	.
12AA/	.	.	.	.	.	.	.
12AA/	.	.	.	.	.	.	.
12AA/J	.	.	.	.	.	.	.
*rep	*	*	*	*	*	*	*
12AA/L	.	4G#X/	.	4B/	.	.	.
12AA/	.	.	.	.	.	.	.
12AA/	.	.	.	.	.	.	.
12AA/	.	4Gn/)	.	4c#/	.	.	.
12AA/	.	.	.	.	.	.	.
12AA/J	.	.	.	.	.	.	.
*Xrep	*	*	*	*	*	*	*
=19	=19	=19	=19	=19	=19	=19	=19
*rep	*	*	*	*	*	*	*
12AA/L	.	(<2F#/	<	4d/)	.	(>2d/	.
12AA/	.	.	.	.	.	.	.
12AA/	.	.	.	.	.	.	.
12AA/	.	.	.	4r	.	.	.
12AA/	.	.	.	.	.	.	.
12AA/J	.	.	.	.	.	.	.
12AA/L	.	4C#/	.	2rg	.	4e/	.
12AA/	.	.	.	.	.	.	.
12AA/	.	.	.	.	.	.	.
12AA/	.	4D/)	[[	.	.	4f#/)	.
12AA/	.	.	.	.	.	.	.
12AA/J	.	.	.	.	.	.	.
*Xrep	*	*	*	*	*	*	*
!!LO:LB:g=original
=20	=20	=20	=20	=20	=20	=20	=20
!	!LO:HP:a	!	!	!	!	!	!
12AA/L	>	1D	.	(>2B/	>	(>1G#	>]
12AA/	.	.	.	.	.	.	.
12AA/	.	.	.	.	.	.	.
12AA/	.	.	.	.	.	.	.
12AA/	.	.	.	.	.	.	.
12AA/J	.	.	.	.	.	.	.
*rep	*	*	*	*	*	*	*
12AA/L	]	.	.	4c#/	]	.	.
12AA/	.	.	.	.	.	.	.
12AA/	.	.	.	.	.	.	.
12AA/	.	.	.	4B/	.	.	.
12AA/	.	.	.	.	.	.	.
12AA/J	.	.	.	.	.	.	.
*Xrep	*	*	*	*	*	*	*
*Xtremolo	*	*	*	*	*	*	*
=21	=21	=21	=21	=21	=21	=21	=21
*	*	*Xtuplet	*	*	*	*Xtuplet	*
!	!	!	!	!	!	!LO:TX:a:t=P:problem=mixedbeam	!
(>2AA/	p	12C#/L	p	4A/)	p	12A/L)	p
!	!	!	!	!	!	!LO:TX:b:i:t=delicato	!
.	.	12E/ 12c#	.	.	.	12ccc#'\	.
.	.	12E/J 12c#	.	.	.	12bb'\J	.
*	*	*tremolo	*	*	*	*	*
.	.	12E/L 12c#	.	4r	.	12aa'\L	.
.	.	12E/ 12c#	.	.	.	12gg#'\	.
.	.	12E/J 12c#	.	.	.	12ff#'\J	.
*	*	*rep	*	*	*	*	*
4BB/	.	12E/L 12c#	.	2r	.	12ee'\L	.
.	.	12E/ 12c#	.	.	.	12ccc#'\	.
.	.	12E/J 12c#	.	.	.	12bb'\J	.
*	*	*Xrep	*	*	*	*	*
*	*	*rep	*	*	*	*	*
4C#/)	.	12E/L 12c#	.	.	.	12aa'\L	.
.	.	12E/ 12c#	.	.	.	12gg#'\	.
.	.	12E/J 12c#	.	.	.	12ff#'\J	.
*	*	*Xrep	*	*	*	*	*
*	*	*Xtremolo	*	*	*	*	*
=22	=22	=22	=22	=22	=22	=22	=22
*	*	*tremolo	*	*Xtuplet	*	*	*
!	!	!	!	!LO:TX:b:i:t=delicato	!	!	!
4EE/	.	12E/L 12d	.	12e/L	.	4ee'\	.
.	.	12E/ 12d	.	12dd'/	.	.	.
.	.	12E/ 12d	.	12cc#'/J	.	.	.
4r	.	12E/ 12d	.	12b'/L	.	4r	.
.	.	12E/ 12d	.	12a'/	.	.	.
.	.	12E/ 12d	.	12g#'/J	.	.	.
2EE/	.	12E/ 12d	.	(12f#^>/L	.	2r	.
.	.	12E/ 12d	.	12e/)	.	.	.
.	.	12E/J 12d	.	12e'/J	.	.	.
*	*	*rep	*	*	*	*	*
.	.	12E/L 12d	.	(12fn^>/L	.	.	.
.	.	12E/ 12d	.	12e/)	.	.	.
.	.	12E/J 12d	.	12e'/J	.	.	.
*	*	*Xrep	*	*	*	*	*
=23	=23	=23	=23	=23	=23	=23	=23
(>2AA/	.	12E/L 12c#	.	4e/	.	12ee'\L	.
.	.	12E/ 12c#	.	.	.	12ccc#'\	.
.	.	12E/ 12c#	.	.	.	12bb'\J	.
.	.	12E/ 12c#	.	4r	.	12aa'\L	.
.	.	12E/ 12c#	.	.	.	12gg#'\	.
.	.	12E/ 12c#	.	.	.	12ff#'\J	.
4BB/	.	12E/ 12c#	.	2rg	.	12ee'\L	.
.	.	12E/ 12c#	.	.	.	12ccc#'\	.
.	.	12E/J 12c#	.	.	.	12bb'\J	.
*	*	*rep	*	*	*	*	*
4C#/)	.	12E/L 12c#	.	.	.	12aa'\L	.
.	.	12E/ 12c#	.	.	.	12gg#'\	.
.	.	12E/J 12c#	.	.	.	12ff#'\J	.
*	*	*Xrep	*	*	*	*	*
=24	=24	=24	=24	=24	=24	=24	=24
!	!	!	!	!LO:TX:a:t=P:problem=mixedbeam	!	!	!
4EE/	.	12E/L 12d	.	12e/L	.	4ee\	.
.	.	12E/ 12d	.	12dd'\	.	.	.
.	.	12E/ 12d	.	12cc#'\J	.	.	.
4r	.	12E/ 12d	.	12b'/L	.	4r	.
.	.	12E/ 12d	.	12a'/	.	.	.
.	.	12E/ 12d	.	12g#'/J	.	.	.
2EE/	.	12E/ 12d	.	12f#'/L	.	2r	.
.	.	12E/ 12d	.	12e'/	.	.	.
.	.	12E/J 12d	.	12d#X'/J	.	.	.
*	*	*rep	*	*	*	*	*
.	.	12E/L 12d	.	12e'/L	.	.	.
.	.	12E/ 12d	.	12dn'/	.	.	.
.	.	12E/J 12d	.	12B'/J	.	.	.
*	*	*Xrep	*	*	*	*	*
*	*	*Xtremolo	*	*	*	*	*
=25	=25	=25	=25	=25	=25	=25	=25
4AA/	.	4E/ 4c#	.	4A/	.	12r	.
.	.	.	.	.	.	12ccc#\L	f
.	.	.	.	.	.	12ccc#\J	.
*	*	*	*	*	*	*tremolo	*
4r	.	4r	.	4r	.	12ccc#\L	.
.	.	.	.	.	.	12ccc#\	.
.	.	.	.	.	.	12ccc#\J	.
*	*	*	*	*	*	*Xtremolo	*
2r	.	2r	.	2rg	.	12ccc#\L	>
.	.	.	.	.	.	12cc#\	.
.	.	.	.	.	.	12cc#\J	.
*	*	*	*	*	*	*tremolo	*
.	.	.	.	.	.	12cc#\L	.
.	.	.	.	.	.	12cc#\	.
.	.	.	.	.	.	12cc#\J	]]
*	*	*	*	*	*	*Xtremolo	*
=26	=26	=26	=26	=26	=26	=26	=26
12r	.	1rc	.	1rb	.	[1cc#^<	.
12c#\L	f	.	.	.	.	.	.
12c#\J	.	.	.	.	.	.	.
*tremolo	*	*	*	*	*	*	*
12c#\L	.	.	.	.	.	.	.
12c#\	.	.	.	.	.	.	.
12c#\J	.	.	.	.	.	.	.
12c#\L	>	.	.	.	.	.	.
12c#\	.	.	.	.	.	.	.
12c#\	.	.	.	.	.	.	.
12c#\	.	.	.	.	.	.	.
12c#\	.	.	.	.	.	.	.
12c#\J	]]	.	.	.	.	.	.
*Xtremolo	*	*	*	*	*	*	*
!!LO:LB:g=original
=27	=27	=27	=27	=27	=27	=27	=27
2c#\	p	(2a\	p	(>2e#X/	p	(2cc#\]	p
(>12G#'\L	<	2g#\)	<[	2d#X/)	<[	2b#X\)	<[
12G#'\	.	.	.	.	.	.	.
12G#'\J	.	.	.	.	.	.	.
*tremolo	*	*	*	*	*	*	*
12G#'\L	.	.	.	.	.	.	.
12G#'\	.	.	.	.	.	.	.
12G#'\J)	[[	.	.	.	.	.	.
*Xtremolo	*	*	*	*	*	*	*
=28	=28	=28	=28	=28	=28	=28	=28
2B\	f >	[2f#\	f >	(>2d/	f >	(2bnX\	f >
(>12F#'\L	] <	2f#\]	] < [[	2c#/)	] < [[	2a#X\)	] < [[
12F#'\	.	.	.	.	.	.	.
12F#'\J	.	.	.	.	.	.	.
*tremolo	*	*	*	*	*	*	*
12F#'\L	.	.	.	.	.	.	.
12F#'\	.	.	.	.	.	.	.
12F#'\J)	[[	.	.	.	.	.	.
*Xtremolo	*	*	*	*	*	*	*
=29	=29	=29	=29	=29	=29	=29	=29
2A\	f >	[2e\	f >	(>2c#/	f >	(2an\	f >
(>12E'\L	] <	2e\]	] < [[	2B/)	] < [[	2g#\)	] < [[
12E'\	.	.	.	.	.	.	.
12E'\J	.	.	.	.	.	.	.
*tremolo	*	*	*	*	*	*	*
12E'\L	.	.	.	.	.	.	.
12E'\	.	.	.	.	.	.	.
12E'\J)	[[	.	.	.	.	.	.
*Xtremolo	*	*	*	*	*	*	*
=30	=30	=30	=30	=30	=30	=30	=30
(2AA#X/	>	(2e\	>	(>2c#/	>	(>2gn/	>
4BB/	.	4d\	]	2B/)	.	4f#/	.
4D\	]	4F#/	.	.	]	4d/	]
=31	=31	=31	=31	=31	=31	=31	=31
4E\)	p	4E/)	p	4A/	p	4c#/)	p
4r	.	4r	.	4r	.	4r	.
2r	.	2r	.	2r	.	2rg	.
=32	=32	=32	=32	=32	=32	=32	=32
4EE/	.	4E/	.	4G#/	.	4B/	.
4r	.	4r	.	4r	.	4r	.
2r;	.	2r;	.	2r;	.	2r;	.
=33	=33	=33	=33	=33	=33	=33	=33
!!!OMD:
!!!OMD-mod: Grandioso
!LO:TX:a:i:t=grandioso:mod=	!LO:DY:a	!LO:TX:a:t=8a v.Cello:mod=	!	!LO:TX:a:t=8a c.1o:mod=	!	!	!
!	!	!LO:TX:b:i:t=grandioso:mod=	!	!	!	!	!
!	!	!	!LO:MO:null:mod=!LO&colon;DY&colon;ed=brack	!	!	!	!
!	!	!	!	!	!	!	!
!	!	!	!LO:MO:null:mod=ff	!	!	!	!
2EE/	ff	2E/yy	.	2e/yy	ff	2ee\	ff
!	!	!	!	!	!	!LO:TX:b:i:t=grandioso:mod=	!
4FF#/	.	4F#/yy	.	4f#/yy	.	4ff#\	.
4GG#/	.	4G#/yy	.	4g#/yy	.	4gg#\	.
!!LO:PB:g=original
=34	=34	=34	=34	=34	=34	=34	=34
!	!	!	!	!LO:MO:mod=4a^	!	!	!
4AA^>/	.	4A^/yy	.	4a/yy	.	4aa^\	.
!	!	!	!	!LO:MO:mod=4b^	!	!	!
4BB^>/	.	4B^/yy	.	4b\yy	.	4bb^\	.
!	!	!	!	!LO:MO:mod=2cc#^	!	!	!
2C#^>/	.	2c#^\yy	.	2cc#\yy	.	2ccc#^\	.
=35	=35	=35	=35	=35	=35	=35	=35
!LO:MO:null:mod=!LO&colon;TX&colon;b&colon;i&colon;t=ben ritenuto	!	!LO:MO:mod=!LO&colon;TX&colon;b&colon;i&colon;t=ben ritenuto	!	!LO:MO:mod=!LO&colon;TX&colon;b&colon;i&colon;t=ben ritenuto	!	!LO:MO:mod=!LO&colon;TX&colon;b&colon;i&colon;t=ben ritenuto	!
!	!	!LO:TX:b:i:t=ben ritenu	!	!LO:TX:b:i:t=ben ritenu	!	!LO:TX:b:i:t=ben ritenu	!
!	!	!	!	!	!	!	!
2D/	.	2d\yy	.	2dd\yy	.	2ddd^\	.
4C#/	.	4c#\yy	.	4cc#\yy	.	4ccc#^\	.
4AA/	.	4A/yy	.	4a/yy	.	4aa^\	.
=36	=36	=36	=36	=36	=36	=36	=36
2DD/	fz	2B\ 2d	fz	2f#/ 2b	fz	2bb^\	fz
!	!	!LO:TX:b:i:t=to	!	!LO:TX:b:i:t=to	!	!LO:TX:b:i:t=to	!
2EE;/	fz	(>[2E;/ 2d	fz	2g#tt;/	fz	2bbTT;\	.
.	.	.	.	16qqf#/LL	.	(16qqaa/LL	.
.	.	.	.	16qqg#/JJ	.	16qqbb/JJ)	.
=37	=37	=37	=37	=37	=37	=37	=37
!	!	!LO:TX:b:i:t=a tempo	!	!LO:TX:b:i:t=a tempo	!	!LO:TX:b:i:t=a tempo	!
[1AA	ff	4E/]) 4c#	.	4a/	.	1aa	fz
!	!	!	!LO:MO:null:mod=!LO&colon;DY&colon;ed=brack	!	!	!	!
!	!	!	!	!	!	!	!
!	!	!	!LO:MO:null:mod=f	!	!	!	!
.	.	(>4A/	.	(4f#/	f	.	.
.	.	4G#/	.	4e/	.	.	.
.	.	4F#/)	>	4d/)	>	.	.
=38	=38	=38	=38	=38	=38	=38	=38
!	!	!LO:TX:b:i:t=ritenu	!	!LO:TX:b:i:t=ritenu	!	!LO:TX:b:i:t=ritenu	!LO:DY:a
1AA_	>	(>4E/	.	(>4c#/	.	[>1a^>	fz > ]]
.	.	4F#/	.	4d/	.	.	.
.	.	4E/	.	4c#/	.	.	.
.	]]	4D/	]]	4B/)	]]	.	.
=39	=39	=39	=39	=39	=39	=39	=39
4AA/]	p	4C#/)	p	4A/	p	4a/]	p
4r	.	4r	.	4r	.	4r	.
4AA\ 4E	.	4C#/	.	4A/	.	4A/	.
4r	.	4r	.	4r	.	4r	.
!!LO:LB:g=original
=40	=40	=40	=40	=40	=40	=40	=40
!	!LO:MO:null:mod=<	!	!	!	!	!LO:TX:a:i:t=Warszawa\nd 18 Marca 1867. r.\no godzinie 8. wieczorem\npo 4ro miesięcznej niebezpiecznej słabości - jako rekonwalescent przy małym promyku nadziei._:mod=	!
1AA; 1E	.	1C#;	<	1A;	<	1A;	<
!	!LO:MO:null:mod=[	!	!	!	!	!	!
.	.	.	[	.	[	.	[
!	!LO:MO:null:mod=>	!	!	!	!	!	!
.	.	.	>	.	>	.	>
!	!LO:MO:null:mod=]	!	!	!	!	!	!
.	.	.	]	.	]	.	]
!!LO:PB:g=original
==	==	==	==	==	==	==	==
*-	*-	*-	*-	*-	*-	*-	*-
!!!system-decoration: [(s1,s2,s3,s4)]
!!!RDF**kern: < = below
!!!RDF**kern: > = above
!!!filter-modern: sic -sq | autostem -r |shed -e "s/^(X?)rep$/$1REP/I" | shed -e "s/LO:DY:(a|b|rj)/LO:dy:$1/L" |shed -k -e "s/yy//" | shed -e "s/TX(.*):t=P:/tx$1:t=P:/LG" | modori -m
!!!ENC: Marta Chmielewska
!!!END: 2021-04-13
!!!EED: Berenika Jozajtis
!!!EEV: 2021-04-06
!!!ENC-modern: Leszek Kubiak
!!!END-modern: 2022-07-29
